!!!COM: L van Beethoven
!!!OTL: String Quartet Op18 No4
**kern	**dynam	**kern	**dynam	**kern	**dynam	**kern	**dynam	**mxhm
*part4	*part4	*part3	*part3	*part2	*part2	*part1	*part1	*part1
*staff4	*	*staff3	*	*staff2	*	*staff1	*	*
*I"Violoncello	*	*I"Viola	*	*I"Violin II	*	*I"Violin I	*	*
*clefF4	*	*clefC3	*	*clefG2	*	*clefG2	*	*
*k[]	*	*k[]	*	*k[]	*	*k[]	*	*
*M3/4	*	*M3/4	*	*M3/4	*	*M3/4	*	*
!	!	!	!	!	!	!LO:TX:a:B:t=Allegretto	!	!
4r	.	4r	.	4r	.	(8.A-L	.	.c.i
.	.	.	.	.	.	16d-Jk)	.	.
=1	=1	=1	=1	=1	=1	=1	=1	=1
4DD-'	.	(2A-	.	(2d-	.	(2f-	.	i
4D-'	.	.	.	.	.	.	.	.
4C-'	sf	4c-)	sf	4e-)	sf	4g-)	sf	III.V
=2	=2	=2	=2	=2	=2	=2	=2	=2
4F-'	.	2c-	.	2f-	.	2a-	.	I
4FF-'	.	.	.	.	.	.	.	.
4D-	sf	4B--	sf	4f-	sf	4b--	sf	IV6
=3	=3	=3	=3	=3	=3	=3	=3	=3
4AA-	.	4A-	.	2f-	.	2cc-	.	I6
(4A-	.	(4a-	.	.	.	.	.	.
4d-	sf	4b-	sf	([4a--X	sf	([4ff-	sf	#viio65/V
=4	=4	=4	=4	=4	=4	=4	=4	=4
4B-	.	4dd-	.	4a--]	.	4ff-]	.	#viio7/V
4c-)	.	4cc-)	.	4g-)	.	4ee-)	.	V\\
4r	.	4r	.	4r	.	(8.g-L	.	i.iv
.	.	.	.	.	.	16b--Jk)	.	.
=5	=5	=5	=5	=5	=5	=5	=5	=5
4GG-'	.	2B--	.	2d-	.	2dd-	.	.
4G-'	.	.	.	.	.	.	.	.
4A-	sf	4c-	sf	4f	sf	4ff	sf	#viio6/iv
=6	=6	=6	=6	=6	=6	=6	=6	=6
4B--'	.	4d-'	.	2g-	.	2gg-	.	iv6
4BB--'	.	4D-'	.	.	.	.	.	.
4G-	sf	4e-	sf	[4dd-	sf	([4bb--	sf	ii%65
=7	=7	=7	=7	=7	=7	=7	=7	=7
4AA-	.	4f-	.	4dd-]	.	4bb--]	.	V(964)
4A-	.	4f-	.	4dd-	.	4aa-)	.	V(64)
4A-	.	4e-	.	4g-	.	4cc	.	V7
=	=	=	=	=	=	=	=	=
4D-	.	4d-	.	4f-	.	4dd-	.	i\\
4r	.	4r	.	4r	.	4r	.	.
=8:|!|:	=8:|!|:	=8:|!|:	=8:|!|:	=8:|!|:	=8:|!|:	=8:|!|:	=8:|!|:	=8:|!|:
!	!	!	!LO:DY:a	!	!	!	!	!
4r	.	4r	f	(8.A-L	.	4r	.	iv.V
.	.	.	.	16d-Jk)	.	.	.	.
=9	=9	=9	=9	=9	=9	=9	=9	=9
4D-	f	(2d-	f	(2f	.	2.r	.	V[V
4d-	.	.	.	.	.	.	.	.
4d-	.	4e-	.	4g-	.	.	.	.
=10	=10	=10	=10	=10	=10	=10	=10	=10
4d-	.	4eX	.	4gX	.	2.r	.	.
4d-	.	4f	.	4a-	.	.	.	.
4d-	.	4g-	.	4b--	.	.	.	.
=11	=11	=11	=11	=11	=11	=11	=11	=11
4d-	.	4gX	.	4b-	.	2.r	.	.
4d-	.	4a-	.	4cc-	.	.	.	.
4d-	.	4b--)	.	4dd-)	.	.	.	.
=12	=12	=12	=12	=12	=12	=12	=12	=12
4d-	sf	(2cc-	sf	(2ee--X	sf	2.ff	sf	#viio43]
4d-	.	.	.	.	.	.	.	.
4d-	.	8b--L	.	8dd-L	.	.	.	.
.	.	8a-J)	.	8cc-J)	.	.	.	.
=13	=13	=13	=13	=13	=13	=13	=13	=13
4G-	.	(2g-	.	(2b--	.	(2gg-	.	i
4d-	.	.	.	.	.	.	.	.
4D-	sf	4f)	sf	4cc-)	sf	4aa-)	sf	V7
=14	=14	=14	=14	=14	=14	=14	=14	=14
4G-	.	(2g-	.	(2b--	.	(2gg-	.	i
4d-	.	.	.	.	.	.	.	.
4D-	sf	4f)	sf	4cc-)	sf	4aa-)	sf	V7
=15	=15	=15	=15	=15	=15	=15	=15	=15
4G-	.	(2g-	.	(2b--	.	(2gg-	.	i
4d-	.	.	.	.	.	.	.	.
4D-	sf	4f)	sf	4cc-)	sf	4aa-)	sf	V7
=16	=16	=16	=16	=16	=16	=16	=16	=16
4G-	.	4g-	.	4b--	.	4gg-	.	i\\
4r	.	4r	.	4r	.	4r	.	.
4r	.	4r	.	(8.B--L	p	(8.b--L	p	.bII.I
.	.	.	.	16e--XJk)	.	16ee--XJk)	.	.
=17	=17	=17	=17	=17	=17	=17	=17	=17
!LO:TX:b:t=cresc.	!	!LO:TX:b:t=cresc.	!	!LO:TX:b:t=cresc.	!	!LO:TX:b:t=cresc.	!	!
4E--X	p	(2E--X	p	(2g-	.	(2gg-	.	.bII[I
4e--X	.	.	.	.	.	.	.	.
4e--	.	4F-	.	4a--X	.	4aa--X	.	.
=18	=18	=18	=18	=18	=18	=18	=18	=18
4e--X	.	4F	.	4a-	.	4aa-	.	.
4e--	.	4G-	.	4b--	.	4bb--	.	.
4e--	.	4GX	.	4b-	.	4bb-	.	.
=19	=19	=19	=19	=19	=19	=19	=19	=19
4e--X	.	4A-	.	4cc-	.	4ccc-	.	.
4e--	.	4B--	.	4cc	.	4ccc	.	.
4e--	.	4B-	.	4dd-	.	4ddd-	.	.
=20	=20	=20	=20	=20	=20	=20	=20	=20
4e--X	.	4c-	.	4ee--X	.	4eee--X	.	.
4e--	.	8d-L	.	8ff-L	.	8fff-L	.	.
.	.	8c-	.	8ee--	.	8eee--	.	.
4e--	.	8B--	.	8dd-	.	8ddd-	.	.
.	.	8A--XJ)	.	8cc-J)	.	8ccc-J)	.	.
=21	=21	=21	=21	=21	=21	=21	=21	=21
4e--X	.	(4G-	.	(4b--	.	(2bb--	.	I[I
[2E--X	sf	4e--X	.	4g-	.	.	.	.
.	.	4B--)	sf	4dd-)	sf	4aa--X)	sf	V7
=22	=22	=22	=22	=22	=22	=22	=22	=22
4E--]	.	(4e--X	.	(4b--	.	(2gg-	.	I
[2E--X	sf	4b--	.	4ee--X	.	.	.	.
.	.	4B--)	sf	4dd-)	sf	4aa--X)	sf	V7
=23	=23	=23	=23	=23	=23	=23	=23	=23
4E--]	.	(4e--X	.	(4b--	.	(2gg-	.	I
(2E--X	sf	4b--	.	4ee--X	.	.	.	.
.	.	4B--)	sf	4dd-)	sf	4aa--X)	sf	V7]
=24	=24	=24	=24	=24	=24	=24	=24	=24
4E--X	.	(4e--X	.	4b--	.	[2.gg-	.	#viio/V
4D-	.	4d-	.	4b--	.	.	.	.
4C)	.	4c)	.	([4ee-	.	.	.	.
=25	=25	=25	=25	=25	=25	=25	=25	=25
(2D-	.	(2d-	.	4ee-]	.	2.gg-]	.	V2(4)
.	.	.	.	4a-)	.	.	.	.
4C-	.	4c-	.	[4dd-	.	.	.	.
=26	=26	=26	=26	=26	=26	=26	=26	=26
4BB--	.	4B--	.	4dd-]	.	2.ff-T	.	#viio7/V
4AA-	.	4A-	.	4dd-	.	.	.	.
4GGX)	.	4GX)	.	4dd-	.	.	.	.
.	.	.	.	.	.	16qqee-/LL	.	.
.	.	.	.	.	.	16qqff-/JJ	.	.
=27	=27	=27	=27	=27	=27	=27	=27	=27
[2.AA-	.	(2A-	.	(4dd-	.	2ee-	.	V[V
.	.	.	.	2cc)	.	.	.	.
.	.	4g-	.	.	.	([4bb--	.	#viio43
=28	=28	=28	=28	=28	=28	=28	=28	=28
2.AA-_	.	2f-	.	(2dd-	.	4bb--]	.	i6(6)
.	.	.	.	.	.	4aa-)	.	i6
.	.	4d-)	.	4gX)	.	([4ff-	.	#viio43/V
=29	=29	=29	=29	=29	=29	=29	=29	=29
!LO:TX:b:t=decresc.	!	!LO:TX:b:t=decresc.	!	!LO:TX:b:t=decresc.	!	!LO:TX:b:t=decresc.	!	!
2.AA-_	.	(2c	.	(2a-	.	4ff-]	.	V6(6)
.	.	.	.	.	.	4ee-)	.	V6
.	.	4g-	.	4cc	.	([4bb--	.	#viio43
=30	=30	=30	=30	=30	=30	=30	=30	=30
2.AA-_	.	2f-	.	2dd-)	.	4bb--]	.	i6(6)
.	.	.	.	.	.	4aa-)	.	i6
.	.	4gX)	.	([4dd-	.	([4ff-	.	#viio7/V
=31	=31	=31	=31	=31	=31	=31	=31	=31
4AA-]	.	(2a-	.	4dd-]	.	4ff-]	.	V(64)
4A-	.	.	.	4cc)	.	4ee-)	.	V
4A-	.	4gX	.	[4dd-	.	([4ff-	.	#viio7/V
=32	=32	=32	=32	=32	=32	=32	=32	=32
4A-	.	4a-)	.	4dd-]	.	4ff-]	.	V(64)
4r	.	4r	.	4cc	.	4ee-)	.	V]\\
4r	.	4r	.	4r	.	(8.A-L	.	i
.	.	.	.	.	.	16d-Jk)	.	.
=33	=33	=33	=33	=33	=33	=33	=33	=33
4DD-'	.	2A-	.	2d-	.	2f-	.	i
4D-'	.	.	.	.	.	.	.	.
4C-	sf	4c-	sf	4e-	sf	4g-	sf	III.V
=34	=34	=34	=34	=34	=34	=34	=34	=34
4F-'	.	2c-	.	2f-	.	2a-	.	I
4FF-'	.	.	.	.	.	.	.	.
4D-	sf	4B--	sf	4f-	sf	4b--	sf	IV6
=35	=35	=35	=35	=35	=35	=35	=35	=35
4AA-	.	4A-	.	2f-	.	2cc-	.	I6
(4A-	.	(4a-	.	.	.	.	.	.
4d-	sf	4b-	sf	([4a--X	sf	([4ff-	sf	#viio65/V
=36	=36	=36	=36	=36	=36	=36	=36	=36
4B-	.	4dd-	.	4a--]	.	4ff-]	.	#viio7/V
4c-)	.	4cc-)	.	4g-)	.	4ee-	.	V
(4f	.	(4A-	.	([4cc-	.	4ee--X)	.	iv.#viio7
=37	=37	=37	=37	=37	=37	=37	=37	=37
4a-	.	4F	.	4cc-]	.	2dd-	.	I
4g-)	.	4G-)	.	4b-)	.	.	.	.
(4E--X	.	(4g-	.	(4b--X	.	([4gg-	.	.bVI
=38	=38	=38	=38	=38	=38	=38	=38	=38
4C	.	4b--	.	4ee-	.	4gg-]	.	#viio7/V
4D-)	.	4a-)	.	4dd-)	.	4ff	.	V
(4BB--	.	(4GX	.	([4dd-	.	4ff-X)	.	i.Ger6
=39	=39	=39	=39	=39	=39	=39	=39	=39
4GGX	.	4B-	.	4dd-]	.	2ee-	.	V
4AA-)	.	4A-)	.	4cc)	.	.	.	.
(4G-	.	(4e-	.	(4cc	.	[4bb--	.	#viio43
=40	=40	=40	=40	=40	=40	=40	=40	=40
!LO:TX:b:t=cresc.	!	!LO:TX:b:t=cresc.	!	!LO:TX:b:t=cresc.	!	!LO:TX:b:t=cresc.	!	!
4E-	.	4c	.	4gg-	.	(4bb--]	.	#viio65
4F-)	.	4d-)	.	4ff-)	.	4aa-	.	i6
(4BB-	.	(4d-	.	(4ff-	.	4ggX	.	#viio65/V
=41	=41	=41	=41	=41	=41	=41	=41	=41
4C	.	4b--	.	4ee-	.	4gg-	.	#viio7
4D-)	.	4a-)	.	4dd-)	sf	4ff	.	I
(4BB--	sf	(4gX	sf	([4d-	.	[4ff-X)	sf	.Ger6
=42	=42	=42	=42	=42	=42	=42	=42	=42
4GGX	.	4b-	.	8d-L]	.	(8ff-L]	.	#viio7/V
.	.	.	.	8e-J)	.	8ee-J)	.	.
4AA-)	.	4a-)	.	4f-'	.	4dd-'	.	V(64)
4AA-'	.	4e-'	.	4g-'	.	4cc'	.	V7
=43	=43	=43	=43	=43	=43	=43	=43	=43
4DD-'	.	4d-'	.	4f-'	.	4dd-'	.	i\\
4A-	.	4r	.	4r	.	4r	.	V[i64
4A-	sf	([4f-	sf	[4a-	sf	4r	.	.
=44	=44	=44	=44	=44	=44	=44	=44	=44
4A-	.	4f-]	.	4a-]	.	2.r	.	V6]
4A-	.	4e-)	.	4g-	.	.	.	.
4A-	.	4c'	.	4e-'	.	.	.	.
=45	=45	=45	=45	=45	=45	=45	=45	=45
(4D-	sf	(4d-	sf	(4f-	sf	(4ff- 2a-	sf	i
4AA-)	.	4c)	.	4e-)	.	4ee-)	.	V
4r	.	4r	.	4r	.	4re	.	.
=46	=46	=46	=46	=46	=46	=46	=46	=46
(4D-	sf	(4d-	sf	(4f-	sf	(4ff- 2a-	sf	i
4AA-)	.	4c)	.	4e-)	.	4ee-)	.	V
4r	.	4r	.	4r	.	4re	.	.
=47	=47	=47	=47	=47	=47	=47	=47	=47
4AA-	.	4r	.	4r	.	2.r	.	V9
4A-	.	4r	.	4r	.	.	.	.
4A-	sf	([4g-	sf	([4b--	sf	.	.	.
=48	=48	=48	=48	=48	=48	=48	=48	=48
4A-	.	4g-]	.	4b--]	.	2.r	.	V(64)
4A-	.	4f-)	.	4a-)	.	.	.	.
4A-	.	4d-'	.	4f-'	.	.	.	.
=49	=49	=49	=49	=49	=49	=49	=49	=49
2.AA-	sf	(4.c	sf	(4.e- 2.A-	sf	(4.bb--	sf	V7(9)
.	.	8e-L	.	8g-L	.	8gg-L	.	V7
.	.	8c	.	8e-	.	8ee-	.	.
.	.	8e-J)	.	8g-J)	.	8ccJ)	.	.
=50	=50	=50	=50	=50	=50	=50	=50	=50
4D-	.	4d-	.	4A- 4f-	.	4dd-	.	i\\
4r	.	4r	.	4r	.	4r	.	.
=51:|!	=51:|!	=51:|!	=51:|!	=51:|!	=51:|!	=51:|!	=51:|!	=51:|!
4D-	.	4d-	.	4A- 4f-	.	4dd-	.	i
4r	.	4r	.	4r	.	4r	.	.
4r	.	4r	.	4r	.	4r	.	.
=52!|:	=52!|:	=52!|:	=52!|:	=52!|:	=52!|:	=52!|:	=52!|:	=52!|:
*k[]	*	*k[]	*	*k[]	*	*k[]	*	*
!	!	!	!	!	!	!LO:TX:a:t=Trio	!	!
[2.BB--	p	[2.F-	p	4r	.	12d-L	p	VI.I
.	.	.	.	.	.	12d-	.	.
.	.	.	.	.	.	12d-J	.	.
.	.	.	.	4ff-'	p	12f-L	.	.
.	.	.	.	.	.	12f-	.	.
.	.	.	.	.	.	12f-J	.	.
.	.	.	.	4ff-'	.	12b--L	.	.
.	.	.	.	.	.	12b--	.	.
.	.	.	.	.	.	12b--J	.	.
=53	=53	=53	=53	=53	=53	=53	=53	=53
2.BB--_	.	2.F-_	.	(4.ff-	.	12dd-L	.	.
.	.	.	.	.	.	12dd-	.	.
.	.	.	.	.	.	12dd-J	.	.
.	.	.	.	.	.	12b--L	.	.
.	.	.	.	.	.	12b--	.	.
.	.	.	.	8dd-)	.	.	.	.
.	.	.	.	.	.	12b--J	.	.
.	.	.	.	4b--	.	12f-L	.	.
.	.	.	.	.	.	12f-	.	.
.	.	.	.	.	.	12f-J	.	.
=54	=54	=54	=54	=54	=54	=54	=54	=54
4BB--]	.	4F-]	.	4f-	.	12d-L	.	.
.	.	.	.	.	.	12d-	.	.
.	.	.	.	.	.	12d-J	.	.
4F-'	.	4F-'	.	4r	.	12f-L	.	I64
.	.	.	.	.	.	12f-	.	.
.	.	.	.	.	.	12f-J	.	.
4F-'	.	4F-'	.	4r	.	12b--L	.	.
.	.	.	.	.	.	12b--	.	.
.	.	.	.	.	.	12b--J	.	.
=55	=55	=55	=55	=55	=55	=55	=55	=55
4.F-'	.	4.F-'	.	2.r	.	12dd-L	.	.
.	.	.	.	.	.	12dd-	.	.
.	.	.	.	.	.	12dd-J	.	.
.	.	.	.	.	.	12b--L	.	.
.	.	.	.	.	.	12b--	.	.
8D-	.	8B--	.	.	.	.	.	.
.	.	.	.	.	.	12b--J	.	.
4BB--'	.	4d-'	.	.	.	12f-L	.	I
.	.	.	.	.	.	12f-	.	.
.	.	.	.	.	.	12f-J	.	.
=56	=56	=56	=56	=56	=56	=56	=56	=56
[2.AA-	.	[2.F- [2.c-	.	4r	.	12e--L	.	V65
.	.	.	.	.	.	12e--	.	.
.	.	.	.	.	.	12e--J	.	.
.	.	.	.	4ff-'	.	12f-L	.	.
.	.	.	.	.	.	12f-	.	.
.	.	.	.	.	.	12f-J	.	.
.	.	.	.	4ff-'	.	12cc-L	.	.
.	.	.	.	.	.	12cc-	.	.
.	.	.	.	.	.	12cc-J	.	.
=57	=57	=57	=57	=57	=57	=57	=57	=57
2.AA-_	.	2.F-_ 2.c-_	.	(4.ff-	.	12ee--L	.	.
.	.	.	.	.	.	12ee--	.	.
.	.	.	.	.	.	12ee--J	.	.
.	.	.	.	.	.	12cc-L	.	.
.	.	.	.	.	.	12cc-	.	.
.	.	.	.	8ee--)	.	.	.	.
.	.	.	.	.	.	12cc-J	.	.
.	.	.	.	4cc-'	.	12f-L	.	.
.	.	.	.	.	.	12f-	.	.
.	.	.	.	.	.	12f-J	.	.
=58	=58	=58	=58	=58	=58	=58	=58	=58
4AA-]	.	4F-] 4c-]	.	4f-	.	12e--L	.	.
.	.	.	.	.	.	12e--	.	.
.	.	.	.	.	.	12e--J	.	.
4F-'	.	4F-'	.	4r	.	12ee--L	.	V7
.	.	.	.	.	.	12ee--	.	.
.	.	.	.	.	.	12ee--J	.	.
4F-'	.	4F-'	.	4r	.	12cc-L	.	.
.	.	.	.	.	.	12cc-	.	.
.	.	.	.	.	.	12cc-J	.	.
=59	=59	=59	=59	=59	=59	=59	=59	=59
(4.F-	.	(4.F-	.	2.r	.	12a-L	.	.
.	.	.	.	.	.	12a-	.	.
.	.	.	.	.	.	12a-J	.	.
.	.	.	.	.	.	12f-L	.	.
.	.	.	.	.	.	12f-	.	.
8C-)	.	8A-)	.	.	.	.	.	.
.	.	.	.	.	.	12f-J	.	.
4AA-'	.	4c-'	.	.	.	12e--L	.	viio
.	.	.	.	.	.	12e--	.	.
.	.	.	.	.	.	12e--J	.	.
=60	=60	=60	=60	=60	=60	=60	=60	=60
4BB--	.	4F-	.	4r	.	12d-L	.	I
.	.	.	.	.	.	12d-	.	.
.	.	.	.	.	.	12d-J	.	.
4r	.	4r	.	4ff-'	.	12f-L	.	.
.	.	.	.	.	.	12f-	.	.
.	.	.	.	.	.	12f-J	.	.
4r	.	4r	.	4ff-'	.	12b--L	.	.
.	.	.	.	.	.	12b--	.	.
.	.	.	.	.	.	12b--J	.	.
=61	=61	=61	=61	=61	=61	=61	=61	=61
2.r	.	4r	.	(4.ff-	.	12dd-L	.	.
.	.	.	.	.	.	12dd-	.	.
.	.	.	.	.	.	12dd-J	.	.
.	.	4D-'	.	.	.	12ff-L	.	.
.	.	.	.	.	.	12ff-	.	.
.	.	.	.	8dd-)	.	.	.	.
.	.	.	.	.	.	12ff-J	.	.
.	.	4D-'	.	4b--'	.	12bb--L	.	.
.	.	.	.	.	.	12bb--	.	.
.	.	.	.	.	.	12bb--J	.	.
=62	=62	=62	=62	=62	=62	=62	=62	=62
!LO:TX:b:t=cresc.	!	!LO:TX:b:t=cresc.	!	!	!	!LO:TX:b:t=cresc.	!	!
4GG-	.	(4.B--	.	4r	.	12e-L	.	V.#viio6
.	.	.	.	.	.	12e-	.	.
.	.	.	.	.	.	12e-J	.	.
!	!	!	!	!LO:TX:b:t=cresc.	!	!	!	!
4r	.	.	.	4bb--'	.	12g-L	.	.
.	.	.	.	.	.	12g-	.	.
.	.	8G-)	.	.	.	.	.	.
.	.	.	.	.	.	12g-J	.	.
4r	.	4E-'	.	4bb--'	.	12b--L	.	.
.	.	.	.	.	.	12b--	.	.
.	.	.	.	.	.	12b--J	.	.
=63	=63	=63	=63	=63	=63	=63	=63	=63
2.r	.	4r	.	(4.bb--	.	12cc-L	.	V2
.	.	.	.	.	.	12cc-	.	.
.	.	.	.	.	.	12cc-J	.	.
.	.	4b--'	.	.	.	12ee-L	.	.
.	.	.	.	.	.	12ee-	.	.
.	.	.	.	8gg-)	.	.	.	.
.	.	.	.	.	.	12ee-J	.	.
.	.	4b--'	.	4ee-'	.	12gg-L	.	.
.	.	.	.	.	.	12gg-	.	.
.	.	.	.	.	.	12gg-J	.	.
=64	=64	=64	=64	=64	=64	=64	=64	=64
4EE-	.	(4.b--	.	4r	.	12ccc-L	.	V65
.	.	.	.	.	.	12ccc-	.	.
.	.	.	.	.	.	12ccc-J	.	.
4r	.	.	.	4bb--'	.	12eee-L	.	.
.	.	.	.	.	.	12eee-	.	.
.	.	8g-)	.	.	.	.	.	.
.	.	.	.	.	.	12eee-J	.	.
4r	.	4e-'	.	4bb--'	.	12ggg-L	.	.
.	.	.	.	.	.	12ggg-	.	.
.	.	.	.	.	.	12ggg-J	.	.
=65	=65	=65	=65	=65	=65	=65	=65	=65
(4.E-	.	(4.G-	.	(4.bb--	.	12ggg-L	.	.
.	.	.	.	.	.	12ggg-	.	.
.	.	.	.	.	.	12ggg-J	.	.
.	.	.	.	.	.	12ggg-L	.	.
.	.	.	.	.	.	12ggg-	.	.
8G-)	.	8c-)	.	8gg-)	.	.	.	.
.	.	.	.	.	.	12ggg-J	.	.
4c-'	.	4e-'	.	4ee-'	.	12ggg-L	.	.
.	.	.	.	.	.	12ggg-	.	.
.	.	.	.	.	.	12ggg-J	.	.
=66	=66	=66	=66	=66	=66	=66	=66	=66
2.e-;	sfp	2.g-;	sfp	2.cc-;	sfp	2.ggg-;	sfp	V6
=67	=67	=67	=67	=67	=67	=67	=67	=67
4r	.	4r	.	4r	.	8r	.	.
.	.	.	.	.	.	(8bb--L	p	.
4r	.	4r	.	4r	.	8aa-	.	.
.	.	.	.	.	.	8gg-	.	.
(4B--	p	[4c-	p	(4g-	p	8ff-	.	V2
.	.	.	.	.	.	8ee-J)	.	.
=68	=68	=68	=68	=68	=68	=68	=68	=68
4A-)	.	4c-]	.	4f-)	.	(4.ff-	.	I6
4r	.	4r	.	4r	.	.	.	.
.	.	.	.	.	.	8cc-)	.	.
4r	.	4r	.	4r	.	4a-'	.	.
=69	=69	=69	=69	=69	=69	=69	=69	=69
4B--	.	4d-	.	4f-	.	4.dd-	.	IV
4r	.	4r	.	4r	.	.	.	.
.	.	.	.	.	.	8b--	.	.
4r	.	4r	.	4r	.	4g-'	.	ii6
=70	=70	=70	=70	=70	=70	=70	=70	=70
4r	.	4r	.	4r	.	(2f-	.	V(64)
4c-	.	(4A-	.	(4c-	.	.	.	.
.	.	.	.	.	.	16qqg-/LL	.	V7(6)
.	.	.	.	.	.	16qqf-/	.	.
.	.	.	.	.	.	16qqe-/	.	.
.	.	.	.	.	.	16qqf-/JJ	.	.
4C-	.	4B--	.	4e-	.	8a-L	.	.
.	.	.	.	.	.	8g-J)	.	V7
=71	=71	=71	=71	=71	=71	=71	=71	=71
4F-	.	4A-)	.	4f-)	.	4f-	.	I\\
4r	.	4r	.	4r	.	4r	.	.
4r	.	4r	.	4r	.	4r	.	.
=72:|!	=72:|!	=72:|!	=72:|!	=72:|!	=72:|!	=72:|!	=72:|!	=72:|!
!	!	!	!	!	!LO:DY:a	!	!	!
[2.FF- [2.C-	p	[2.A-	p	4r	p	12A-L	.	I
.	.	.	.	.	.	12A-	.	.
.	.	.	.	.	.	12A-J	.	.
.	.	.	.	4cc-'	p	12c-L	.	.
.	.	.	.	.	.	12c-	.	.
.	.	.	.	.	.	12c-J	.	.
.	.	.	.	4cc-'	.	12f-L	.	.
.	.	.	.	.	.	12f-	.	.
.	.	.	.	.	.	12f-J	.	.
=73	=73	=73	=73	=73	=73	=73	=73	=73
2.FF-_ 2.C-_	.	2.A-_	.	(4.cc-	.	12a-L	.	.
.	.	.	.	.	.	12a-	.	.
.	.	.	.	.	.	12a-J	.	.
.	.	.	.	.	.	12f-L	.	.
.	.	.	.	.	.	12f-	.	.
.	.	.	.	8a-)	.	.	.	.
.	.	.	.	.	.	12f-J	.	.
.	.	.	.	4f-'	.	12c-L	.	.
.	.	.	.	.	.	12c-	.	.
.	.	.	.	.	.	12c-J	.	.
=74	=74	=74	=74	=74	=74	=74	=74	=74
4FF-] 4C-]	.	4A-]	.	4c-	.	12A-L	.	.
.	.	.	.	.	.	12A-	.	.
.	.	.	.	.	.	12A-J	.	.
4C-'	.	4c-'	.	4r	.	12c-L	.	I64
.	.	.	.	.	.	12c-	.	.
.	.	.	.	.	.	12c-J	.	.
4C-'	.	4c-'	.	4r	.	12f-L	.	.
.	.	.	.	.	.	12f-	.	.
.	.	.	.	.	.	12f-J	.	.
=75	=75	=75	=75	=75	=75	=75	=75	=75
(4.C-	.	(4.c-	.	2.r	.	12a-L	.	.
.	.	.	.	.	.	12a-	.	.
.	.	.	.	.	.	12a-J	.	.
.	.	.	.	.	.	12f-L	.	.
.	.	.	.	.	.	12f-	.	.
8AA-)	.	8f-)	.	.	.	.	.	.
.	.	.	.	.	.	12f-J	.	.
4FF-'	.	4a-'	.	.	.	12c-L	.	V
.	.	.	.	.	.	12c-	.	.
.	.	.	.	.	.	12c-J	.	.
=76	=76	=76	=76	=76	=76	=76	=76	=76
[2.EE- [2.C-	.	4b--	.	4r	.	12B--L	.	V65
.	.	.	.	.	.	12B--	.	.
.	.	.	.	.	.	12B--J	.	.
.	.	4r	.	4cc-'	.	12c-L	.	.
.	.	.	.	.	.	12c-	.	.
.	.	.	.	.	.	12c-J	.	.
.	.	4r	.	4cc-'	.	12g-L	.	.
.	.	.	.	.	.	12g-	.	.
.	.	.	.	.	.	12g-J	.	.
=77	=77	=77	=77	=77	=77	=77	=77	=77
2.EE-_ 2.C-_	.	[2.G-	.	(4.cc-	.	12b--L	.	.
.	.	.	.	.	.	12b--	.	.
.	.	.	.	.	.	12b--J	.	.
.	.	.	.	.	.	12g-L	.	.
.	.	.	.	.	.	12g-	.	.
.	.	.	.	8b--)	.	.	.	.
.	.	.	.	.	.	12g-J	.	.
.	.	.	.	4g-'	.	12c-L	.	.
.	.	.	.	.	.	12c-	.	.
.	.	.	.	.	.	12c-J	.	.
=78	=78	=78	=78	=78	=78	=78	=78	=78
4EE-] 4C-]	.	4G-]	.	4c-	.	12B--L	.	V65
.	.	.	.	.	.	12B--	.	.
.	.	.	.	.	.	12B--J	.	.
4C-'	.	4c-'	.	4r	.	12b--L	.	V7
.	.	.	.	.	.	12b--	.	.
.	.	.	.	.	.	12b--J	.	.
4C-'	.	4c-'	.	4r	.	12g-L	.	.
.	.	.	.	.	.	12g-	.	.
.	.	.	.	.	.	12g-J	.	.
=79	=79	=79	=79	=79	=79	=79	=79	=79
(4.C-	.	(4.c-	.	2.r	.	12e-L	.	.
.	.	.	.	.	.	12e-	.	.
.	.	.	.	.	.	12e-J	.	.
.	.	.	.	.	.	12c-L	.	.
.	.	.	.	.	.	12c-	.	.
8GG-)	.	8e-)	.	.	.	.	.	.
.	.	.	.	.	.	12c-J	.	.
4EE-'	.	4g-'	.	.	.	12B--L	.	V65
.	.	.	.	.	.	12B--	.	.
.	.	.	.	.	.	12B--J	.	.
=80	=80	=80	=80	=80	=80	=80	=80	=80
!	!	!	!	!	!	!LO:TX:b:t=cresc.	!	!
4EE--X	.	4a-	.	4r	.	12A-L	.	I.V2
.	.	.	.	.	.	12A-	.	.
.	.	.	.	.	.	12A-J	.	.
!	!	!	!	!LO:TX:b:t=cresc.	!	!	!	!
4r	.	4r	.	4cc-'	.	12c-L	.	.
.	.	.	.	.	.	12c-	.	.
.	.	.	.	.	.	12c-J	.	.
4r	.	4r	.	4cc-'	.	12f-L	.	.
.	.	.	.	.	.	12f-	.	.
.	.	.	.	.	.	12f-J	.	.
=81	=81	=81	=81	=81	=81	=81	=81	=81
4r	.	4r	.	(4.cc-	.	12a-L	.	.
.	.	.	.	.	.	12a-	.	.
.	.	.	.	.	.	12a-J	.	.
!LO:TX:b:t=cresc.	!	!LO:TX:b:t=cresc.	!	!	!	!	!	!
4E--'	.	4F-'	.	.	.	12cc-L	.	.
.	.	.	.	.	.	12cc-	.	.
.	.	.	.	8a-)	.	.	.	.
.	.	.	.	.	.	12cc-J	.	.
4E--'	.	4F-'	.	4f-'	.	12ff-L	.	.
.	.	.	.	.	.	12ff-	.	.
.	.	.	.	.	.	12ff-J	.	.
=82	=82	=82	=82	=82	=82	=82	=82	=82
4D-	.	(4.F-	.	4r	.	12B--L	.	I6
.	.	.	.	.	.	12B--	.	.
.	.	.	.	.	.	12B--J	.	.
4r	.	.	.	4dd-'	.	12d-L	.	.
.	.	.	.	.	.	12d-	.	.
.	.	8B--)	.	.	.	.	.	.
.	.	.	.	.	.	12d-J	.	.
4r	.	4d-'	.	4dd-'	.	12f-L	.	.
.	.	.	.	.	.	12f-	.	.
.	.	.	.	.	.	12f-J	.	.
=83	=83	=83	=83	=83	=83	=83	=83	=83
4r	.	4r	.	(4.dd-	.	12b--L	.	.
.	.	.	.	.	.	12b--	.	.
.	.	.	.	.	.	12b--J	.	.
4D-'	.	4F-'	.	.	.	12dd-L	.	.
.	.	.	.	.	.	12dd-	.	.
.	.	.	.	8b--)	.	.	.	.
.	.	.	.	.	.	12dd-J	.	.
4D-'	.	4F-'	.	4f-'	.	12ff-L	.	.
.	.	.	.	.	.	12ff-	.	.
.	.	.	.	.	.	12ff-J	.	.
=84	=84	=84	=84	=84	=84	=84	=84	=84
4AA-	.	(4.F-	.	4r	.	12c-L	.	V65
.	.	.	.	.	.	12c-	.	.
.	.	.	.	.	.	12c-J	.	.
4r	.	.	.	4ee--'	.	12f-L	.	.
.	.	.	.	.	.	12f-	.	.
.	.	8c-)	.	.	.	.	.	.
.	.	.	.	.	.	12f-J	.	.
4r	.	4e--'	.	4ee--'	.	12a-L	.	.
.	.	.	.	.	.	12a-	.	.
.	.	.	.	.	.	12a-J	.	.
=85	=85	=85	=85	=85	=85	=85	=85	=85
2.r	.	2.r	.	(4.ee--	.	12cc-L	.	.
.	.	.	.	.	.	12cc-	.	.
.	.	.	.	.	.	12cc-J	.	.
.	.	.	.	.	.	12ff-L	.	.
.	.	.	.	.	.	12ff-	.	.
.	.	.	.	8cc-)	.	.	.	.
.	.	.	.	.	.	12ff-J	.	.
.	.	.	.	4a-'	.	12aa-L	.	.
.	.	.	.	.	.	12aa-	.	.
.	.	.	.	.	.	12aa-J	.	.
=86	=86	=86	=86	=86	=86	=86	=86	=86
2.r	.	2.r	.	(4.aa-	.	12ccc-L	.	.
.	.	.	.	.	.	12ccc-	.	.
.	.	.	.	.	.	12ccc-J	.	.
.	.	.	.	.	.	12fff-L	.	.
.	.	.	.	.	.	12fff-	.	.
.	.	.	.	8ee--)	.	.	.	.
.	.	.	.	.	.	12fff-J	.	.
.	.	.	.	4cc-'	.	12aaa-L	.	.
.	.	.	.	.	.	12aaa-	.	.
.	.	.	.	.	.	12aaa-J	.	.
=87	=87	=87	=87	=87	=87	=87	=87	=87
*	*	*	*	*	*	*8va	*	*
(4.A-	.	(4.c-	.	(4.ccc-	.	12cccc-L	.	.
.	.	.	.	.	.	12cccc-	.	.
.	.	.	.	.	.	12cccc-J	.	.
.	.	.	.	.	.	12eeee--L	.	.
.	.	.	.	.	.	12eeee--	.	.
8c-)	.	8f-)	.	8aa-)	.	.	.	.
.	.	.	.	.	.	12eeee--J	.	.
4f-'	.	4a-'	.	4ff-'	.	12eeee--L	.	.
.	.	.	.	.	.	12eeee--	.	.
.	.	.	.	.	.	12eeee--J	.	.
=88	=88	=88	=88	=88	=88	=88	=88	=88
2.a-;	sfp	2.cc-;	sfp	2.ff-;	sfp	2.eeee--;	sfp	.
*	*	*	*	*	*	*X8va	*	*
=89	=89	=89	=89	=89	=89	=89	=89	=89
4r	.	4r	.	4r	.	8r	.	.
.	.	.	.	.	.	(8eee--L	p	.
4r	.	4r	.	4r	.	8ddd-	.	.
.	.	.	.	.	.	8ccc-	.	.
(4e--	p	[4f-	p	(4cc-	p	8bb--	.	V2(4)
.	.	.	.	.	.	8aa-J)	.	V2
=90	=90	=90	=90	=90	=90	=90	=90	=90
4d-)	.	4f-]	.	4b--)	.	(4.bb--	.	I6
4r	.	4r	.	4r	.	.	.	.
.	.	.	.	.	.	8ff-)	.	.
4r	.	4r	.	4r	.	4dd-'	.	.
=91	=91	=91	=91	=91	=91	=91	=91	=91
4e--	.	4g-	.	4b--	.	(4.gg-	.	IV
4r	.	4r	.	4r	.	.	.	.
.	.	.	.	.	.	8ee--)	.	.
4r	.	4r	.	4r	.	4cc-	.	ii6
=92	=92	=92	=92	=92	=92	=92	=92	=92
4r	.	4r	.	4r	.	(2b--	.	V(64)
4F-	.	(4d-	.	(4f-	.	.	.	.
.	.	.	.	.	.	16qqcc-/LL	.	V7(6)
.	.	.	.	.	.	16qqb--/	.	.
.	.	.	.	.	.	16qqa-/	.	.
.	.	.	.	.	.	16qqb--/JJ	.	.
4F-	.	4e--	.	4a-	.	8dd-L	.	.
.	.	.	.	.	.	8cc-J)	.	V7
=93	=93	=93	=93	=93	=93	=93	=93	=93
4B--	.	4d-)	.	4b--)	.	4b--	.	I\\
4r	.	4r	.	4r	.	4r	.	.
4r	.	4r	.	4r	.	4r	.	.
=94	=94	=94	=94	=94	=94	=94	=94	=94
!	!	!	!	!	!	!LO:TX:b:t=decresc.	!	!
4r	.	4r	.	4r	.	(2B--	.	iii.III64
!LO:TX:b:t=decresc.	!	!LO:TX:b:t=decresc.	!	!LO:TX:b:t=decresc.	!	!	!	!
(4FF-	.	(4D-	.	(4B--	.	.	.	.
.	.	.	.	.	.	16qqc-/LL	.	#viio7(6)/iv
.	.	.	.	.	.	16qqB--/	.	.
.	.	.	.	.	.	16qqA-/	.	.
.	.	.	.	.	.	16qqB--/JJ	.	.
4FF	.	4E--	.	4A-	.	8d-L	.	.
.	.	.	.	.	.	8c-J)	.	#viio7/iv
=95	=95	=95	=95	=95	=95	=95	=95	=95
4GG-)	.	4D-)	.	4B--)	.	4B--	.	iv
4r	.	4r	.	4r	.	4r	.	.
4r	.	4r	.	4r	.	4r	.	.
=96	=96	=96	=96	=96	=96	=96	=96	=96
4G-	pp	4B--	pp	4e-	pp	4g-	pp	iio6
4r	.	4r	.	4r	.	4r	.	.
4r	.	4r	.	4r	.	4r	.	.
=97	=97	=97	=97	=97	=97	=97	=97	=97
!LO:TX:b:t=La seconda volta si prende il Tempo piu Allegro	!	!	!	!	!	!	!	!
4GX	.	4B-	.	4d-	.	4f-	.	#viio7/V
4r	.	4r	.	4r	.	4r	.	.
4r	.	4r	.	4r	.	4r	.	.
=98	=98	=98	=98	=98	=98	=98	=98	=98
4A-	.	4c	.	4c	.	4e-	.	V\\
4r	.	4r	.	4r	.	4r	.	.
4r	.	4r	.	4r	.	4r	.	.
=99	=99	=99	=99	=99	=99	=99	=99	=99
!	!	!	!	!	!	!LO:TX:a:t=Men. D.C.	!	!
4r	.	4r	.	4r	.	4r	.	.
4r	.	4r	.	4r	.	4r	.	.
==	==	==	==	==	==	==	==	==
*-	*-	*-	*-	*-	*-	*-	*-	*-
!!!system-decoration: s1,s2,s3,s4
